public/images/info-bar__eye.svg

<svg width="101" height="101" viewBox="0 0 101 101" fill="none" xmlns="http://www.w3.org/2000/svg">
<g opacity="0.8">
<path d="M82.4671 67.3802C80.6635 56.9866 73.0259 41.7226 59.5708 34.0994C46.0674 26.4489 29.016 27.7993 19.2541 31.566C18.2904 31.9378 17.7234 32.9385 17.8998 33.9563C19.7442 44.5997 27.5079 59.7086 40.7961 67.2372C54.5565 75.0334 71.6975 73.4012 81.1127 69.7707C82.0765 69.3987 82.6435 68.398 82.4671 67.3802ZM62.9836 57.9204C58.9848 64.9784 49.9893 67.4674 42.9311 63.4685C35.8729 59.4695 33.3844 50.4737 37.3831 43.416C41.3819 36.358 50.3774 33.869 57.4355 37.8679C64.4942 41.8673 66.982 50.8631 62.9836 57.9204ZM22.5789 35.0292C25.9487 34.0265 33.7579 32.1666 42.6665 33.1806C34.8075 36.5477 30.1687 44.7312 31.3184 53.2052C27.1709 47.7994 24.1712 41.2718 22.5789 35.0292ZM57.7004 68.156C65.5594 64.7886 70.198 56.6052 69.0485 48.1313C73.1958 53.5369 76.1955 60.0647 77.788 66.3072C74.4181 67.3101 66.6091 69.1698 57.7004 68.156Z" fill="#153862"/>
<path d="M43.7766 47.0384C41.7751 50.5712 43.0208 55.0735 46.5536 57.075C50.0862 59.0765 54.5887 57.8309 56.5902 54.2981C58.5918 50.7653 57.3459 46.2629 53.8133 44.2615C50.2805 42.2599 45.7782 43.5056 43.7766 47.0384ZM52.8215 52.1629C51.9973 53.6176 50.1434 54.1305 48.6888 53.3063C47.2341 52.4821 46.7211 50.6283 47.5453 49.1736C48.3695 47.7189 50.2234 47.206 51.6781 48.0302C53.1327 48.8543 53.6457 50.7082 52.8215 52.1629Z" fill="#153862"/>
<path d="M63.7064 26.7999C64.7471 27.3895 66.0688 27.0238 66.6584 25.9832L69.1495 21.5863C69.7391 20.5457 69.3734 19.224 68.3327 18.6344C67.2921 18.0448 65.9704 18.4105 65.3808 19.4511L62.8897 23.8479C62.3001 24.8886 62.6658 26.2103 63.7064 26.7999Z" fill="#153862"/>
<path d="M73.5219 35.6902C74.1334 36.7174 75.4625 37.0553 76.4908 36.4431L81.4896 33.467C82.5173 32.8551 82.8546 31.5261 82.2426 30.4982C81.6305 29.4704 80.3017 29.1332 79.2737 29.7453L74.275 32.7214C73.2473 33.3331 72.9101 34.6623 73.5219 35.6902Z" fill="#153862"/>
<path d="M48.8633 20.7905C48.8667 21.9866 49.839 22.9533 51.0353 22.95C52.2313 22.9466 53.1982 21.9741 53.1948 20.7781L53.1782 14.9605C53.1748 13.7644 52.2022 12.7975 51.0062 12.801C49.8101 12.8043 48.8433 13.7768 48.8467 14.9729L48.8633 20.7905Z" fill="#153862"/>
<path d="M36.6605 74.5367C35.6198 73.9471 34.2981 74.3128 33.7085 75.3535L31.2174 79.7503C30.6278 80.791 30.9935 82.1126 32.0342 82.7022C33.0748 83.2918 34.3965 82.9262 34.9861 81.8855L37.4772 77.4887C38.0668 76.448 37.7011 75.1263 36.6605 74.5367Z" fill="#153862"/>
<path d="M26.8448 65.6466C26.2329 64.619 24.9039 64.2817 23.876 64.8935L18.8772 67.8696C17.8495 68.4815 17.5123 69.8107 18.1242 70.8384C18.7362 71.8662 20.0654 72.2032 21.093 71.5914L26.0918 68.6154C27.1196 68.0036 27.4567 66.6743 26.8448 65.6466V65.6466Z" fill="#153862"/>
<path d="M51.5035 80.5462C51.5002 79.35 50.5273 78.3832 49.3316 78.3865C48.1355 78.3899 47.1687 79.3624 47.1721 80.5585L47.1887 86.3761C47.192 87.5721 48.1642 88.539 49.3606 88.5357C50.5566 88.5323 51.5235 87.5598 51.5201 86.3638L51.5035 80.5462Z" fill="#153862"/>
</g>
</svg>

<svg width="101" height="101" fill="none" xmlns="http://www.w3.org/2000/svg"><g opacity=".8" fill="#153862"><path d="M82.467 67.38c-1.803-10.393-9.441-25.657-22.896-33.28-13.504-7.651-30.555-6.3-40.317-2.534a2.166 2.166 0 00-1.354 2.39C19.744 44.6 27.508 59.71 40.796 67.237c13.76 7.796 30.902 6.164 40.317 2.534a2.166 2.166 0 001.354-2.39zm-19.483-9.46c-4 7.058-12.995 9.547-20.053 5.548-7.058-3.999-9.547-12.994-5.548-20.052 3.999-7.058 12.994-9.547 20.052-5.548 7.06 4 9.547 12.995 5.549 20.052zM22.579 35.03c3.37-1.004 11.179-2.863 20.087-1.85a18.994 18.994 0 00-11.348 20.025c-4.147-5.406-7.147-11.933-8.74-18.176zM57.7 68.155a18.995 18.995 0 0011.35-20.024c4.147 5.406 7.146 11.934 8.739 18.176-3.37 1.003-11.179 2.863-20.088 1.849z"/><path d="M43.777 47.038c-2.002 3.533-.756 8.036 2.777 10.037 3.532 2.002 8.035.756 10.036-2.777 2.002-3.533.756-8.035-2.777-10.037-3.532-2.001-8.035-.755-10.036 2.777zm9.044 5.125a3.035 3.035 0 01-4.132 1.143 3.035 3.035 0 01-1.144-4.132 3.035 3.035 0 014.133-1.144 3.035 3.035 0 011.144 4.133zM63.706 26.8a2.165 2.165 0 002.952-.817l2.492-4.397a2.166 2.166 0 00-3.77-2.135l-2.49 4.397a2.166 2.166 0 00.816 2.952zm9.816 8.89a2.166 2.166 0 002.969.753l4.999-2.976a2.166 2.166 0 10-2.216-3.722l-4.999 2.976a2.166 2.166 0 00-.753 2.97zm-24.659-14.9a2.166 2.166 0 004.332-.012l-.017-5.817a2.166 2.166 0 00-4.331.012l.016 5.818zM36.66 74.537a2.166 2.166 0 00-2.951.816l-2.492 4.397a2.166 2.166 0 003.77 2.135l2.49-4.396a2.166 2.166 0 00-.816-2.952zm-9.815-8.89a2.166 2.166 0 00-2.969-.754l-4.999 2.977a2.166 2.166 0 002.216 3.721l4.999-2.976a2.166 2.166 0 00.753-2.968zm24.659 14.899a2.166 2.166 0 00-4.332.012l.017 5.818a2.166 2.166 0 104.331-.012l-.017-5.818z"/></g></svg>
